styles/1/Numix/32/places/orange-folder-hdd.svg

<?xml version="1.0" encoding="UTF-8" standalone="no"?>
<!-- Created with Inkscape (http://www.inkscape.org/) -->

<svg
   xmlns:dc="http://purl.org/dc/elements/1.1/"
   xmlns:cc="http://creativecommons.org/ns#"
   xmlns:rdf="http://www.w3.org/1999/02/22-rdf-syntax-ns#"
   xmlns:svg="http://www.w3.org/2000/svg"
   xmlns="http://www.w3.org/2000/svg"
   xmlns:sodipodi="http://sodipodi.sourceforge.net/DTD/sodipodi-0.dtd"
   xmlns:inkscape="http://www.inkscape.org/namespaces/inkscape"
   width="32"
   height="32"
   id="svg2"
   version="1.1"
   inkscape:version="0.91 r"
   sodipodi:docname="orange-folder-hdd.svg"
   inkscape:export-filename="/media/Data/Main/Visuals/Icons/Numix/Desktop/repos/numix-wiki/Gjorgi/Numix-folders/48/New/folder-144.png"
   inkscape:export-xdpi="270"
   inkscape:export-ydpi="270">
  <defs
     id="defs4" />
  <sodipodi:namedview
     id="base"
     pagecolor="#ffffff"
     bordercolor="#666666"
     borderopacity="1.0"
     inkscape:pageopacity="0.0"
     inkscape:pageshadow="2"
     inkscape:zoom="22.627417"
     inkscape:cx="19.866695"
     inkscape:cy="14.45308"
     inkscape:document-units="px"
     inkscape:current-layer="layer1"
     showgrid="true"
     inkscape:window-width="1280"
     inkscape:window-height="998"
     inkscape:window-x="0"
     inkscape:window-y="0"
     inkscape:window-maximized="1"
     showguides="true"
     inkscape:guide-bbox="true">
    <inkscape:grid
       type="xygrid"
       id="grid2985"
       empspacing="5"
       visible="true"
       enabled="true"
       snapvisiblegridlinesonly="true" />
  </sodipodi:namedview>
  <metadata
     id="metadata7">
    <rdf:RDF>
      <cc:Work
         rdf:about="">
        <dc:format>image/svg+xml</dc:format>
        <dc:type
           rdf:resource="http://purl.org/dc/dcmitype/StillImage" />
        <dc:title />
      </cc:Work>
    </rdf:RDF>
  </metadata>
  <g
     inkscape:label="Layer 1"
     inkscape:groupmode="layer"
     id="layer1"
     transform="translate(0,-1020.3622)">
    <path
       style="font-size:medium;font-style:normal;font-variant:normal;font-weight:normal;font-stretch:normal;text-indent:0;text-align:start;text-decoration:none;line-height:normal;letter-spacing:normal;word-spacing:normal;text-transform:none;direction:ltr;block-progression:tb;writing-mode:lr-tb;text-anchor:start;baseline-shift:baseline;color:#000000;fill:#f57c00;fill-opacity:1;fill-rule:nonzero;stroke:none;stroke-width:2.28612947;marker:none;visibility:visible;display:inline;overflow:visible;enable-background:accumulate;font-family:Sans;-inkscape-font-specification:Sans"
       d="M 2.03125 4 C 1.4665378 4.056 0.99079304 4.58885 1 5.15625 L 1 26.84375 C 0.99302 27.45105 1.5489584 28.007 2.15625 28 L 29.84375 28 C 30.451042 28.01 31.006984 27.45105 31 26.84375 L 31 7.15625 C 31.007 6.54895 30.451042 5.993 29.84375 6 L 19 6 L 19 5.15625 C 19.0069 4.55935 18.471863 4.0095 17.875 4 L 2.15625 4 L 2.03125 4 z M 12 11 L 20 11 C 20.712286 11 21 11.3352 21 12 L 21 22 C 21 22.6648 20.431036 23 19.71875 23 L 12 23 C 11.287715 23 11 22.6648 11 22 L 11 12 C 11 11.3352 11.287715 11 12 11 z M 12.5 12 C 12.223858 12 12 12.2239 12 12.5 C 12 12.7761 12.223858 13 12.5 13 C 12.776142 13 13 12.7761 13 12.5 C 13 12.2239 12.776142 12 12.5 12 z M 19.5 12 C 19.223858 12 19 12.2239 19 12.5 C 19 12.7761 19.223858 13 19.5 13 C 19.776142 13 20 12.7761 20 12.5 C 20 12.2239 19.776142 12 19.5 12 z M 16 13 C 14.895431 13 14 13.8954 14 15 C 14 16.1046 14.895431 17 16 17 C 17.104569 17 18 16.1046 18 15 C 18 13.8954 17.104569 13 16 13 z M 12.5 17 C 12.223858 17 12 17.2239 12 17.5 C 12 17.7761 12.223858 18 12.5 18 C 12.776142 18 13 17.7761 13 17.5 C 13 17.2239 12.776142 17 12.5 17 z M 19.5 17 C 19.223858 17 19 17.2239 19 17.5 C 19 17.7761 19.223858 18 19.5 18 C 19.776142 18 20 17.7761 20 17.5 C 20 17.2239 19.776142 17 19.5 17 z M 12.5 21 C 12.223 21 12 21.223 12 21.5 C 12 21.777 12.223 22 12.5 22 L 19.5 22 C 19.777 22 20 21.777 20 21.5 C 20 21.223 19.777 21 19.5 21 L 12.5 21 z "
       transform="translate(0,1020.3622)"
       id="path3912" />
  </g>
</svg>

<!-- Created with Inkscape (http://www.inkscape.org/) -->
<svg xmlns="http://www.w3.org/2000/svg" viewBox="0 0 32 32">
 <g transform="translate(0,-1020.3622)">
  <path d="m 2.031 4 c -0.565 0.056 -1.04 0.589 -1.031 1.156 l 0 21.688 c -0.007 0.607 0.549 1.163 1.156 1.156 l 27.688 0 c 0.607 0.01 1.163 -0.549 1.156 -1.156 l 0 -19.688 c 0.007 -0.607 -0.549 -1.163 -1.156 -1.156 l -10.844 0 l 0 -0.844 c 0.007 -0.597 -0.528 -1.147 -1.125 -1.156 l -15.719 0 l -0.125 0 z m 9.969 7 l 8 0 c 0.712 0 1 0.335 1 1 l 0 10 c 0 0.665 -0.569 1 -1.281 1 l -7.719 0 c -0.712 0 -1 -0.335 -1 -1 l 0 -10 c 0 -0.665 0.288 -1 1 -1 z m 0.5 1 c -0.276 0 -0.5 0.224 -0.5 0.5 c 0 0.276 0.224 0.5 0.5 0.5 c 0.276 0 0.5 -0.224 0.5 -0.5 c 0 -0.276 -0.224 -0.5 -0.5 -0.5 z m 7 0 c -0.276 0 -0.5 0.224 -0.5 0.5 c 0 0.276 0.224 0.5 0.5 0.5 c 0.276 0 0.5 -0.224 0.5 -0.5 c 0 -0.276 -0.224 -0.5 -0.5 -0.5 z m -3.5 1 c -1.105 0 -2 0.895 -2 2 c 0 1.105 0.895 2 2 2 c 1.105 0 2 -0.895 2 -2 c 0 -1.105 -0.895 -2 -2 -2 z m -3.5 4 c -0.276 0 -0.5 0.224 -0.5 0.5 c 0 0.276 0.224 0.5 0.5 0.5 c 0.276 0 0.5 -0.224 0.5 -0.5 c 0 -0.276 -0.224 -0.5 -0.5 -0.5 z m 7 0 c -0.276 0 -0.5 0.224 -0.5 0.5 c 0 0.276 0.224 0.5 0.5 0.5 c 0.276 0 0.5 -0.224 0.5 -0.5 c 0 -0.276 -0.224 -0.5 -0.5 -0.5 z m -7 4 c -0.277 0 -0.5 0.223 -0.5 0.5 c 0 0.277 0.223 0.5 0.5 0.5 l 7 0 c 0.277 0 0.5 -0.223 0.5 -0.5 c 0 -0.277 -0.223 -0.5 -0.5 -0.5 l -7 0 z" transform="translate(0,1020.3622)" style="visibility:visible;fill:#f57c00;fill-opacity:1;stroke:none;display:inline;color:#000;fill-rule:nonzero"/>
 </g>
</svg>
